X: 0
T: Jolly Old St. Nicholas
Z: Unknown
Z: Public Domain
L: 1/4
M: 4/4
Q: 1/4=207
V: P1 name="Staff"
%%MIDI program 1 -1
V: P2 name="Staff-2"
%%MIDI program 2 -1
V: P3 name="Staff-3"
%%MIDI program 3 -1
V: P4 name="Staff-4"
%%MIDI program 4 -1
K: C
[V: P1]  e e e e | d d d2 | c c c c | e4 | A A A A | G G c2 | B c d e | d4 | e e e e | d d d2 | c c c c | e4 | A A A A | G G c2 | d c d e | c g c'z | e e e e | d d d2 | c c c c | e4 | A A A A | G G c2 | B c d e | d4 | e e e e | d d d2 | c c c c | e4 | A A A A | G G c2 | d c d e | c g c'z|]
[V: P2]  c c c c | B B B2 | A A A A | G4 | F F F F |z2 E2 | z4 | z4 | c c c c | B B B2 | A A A A | G4 | F F F F |z2 E2 | z4 | z4 | c c c c | B B B2 | A A A A | G4 | F F F F |z2 E2 | z4 | z4 | c c c c | B B B2 | A A A A | G4 | F F F F |z2 E2 | z4 | z4|]
[V: P3]  G,z G,z | F,z F,z | E,z E,z | z4 | z4 | Cz G,z | z4 | z4 | G,z G,z | F,z F,z | E,z E,z | z4 | z4 | Cz G,z | z4 | Cz3 | G,z G,z | F,z F,z | E,z E,z | z4 | z4 | Cz G,z | z4 | z4 | G,z G,z | F,z F,z | E,z E,z | z4 | z4 | Cz G,z | z4 | Cz3|]
[V: P4]  C,z C,z | G,,z G,,z | A,,z A,,z | E,z E,z | F,z F,z | E,z C,z | G, A, B, C | B,z G,z | C,z C,z | G,,z G,,z | A,,z A,,z | E,z E,z | F,z F,z | E,z C,z | B, A, G, F, | E,z C,,z | C,z C,z | G,,z G,,z | A,,z A,,z | E,z E,z | F,z F,z | E,z C,z | G, A, B, C | B,z G,z | C,z C,z | G,,z G,,z | A,,z A,,z | E,z E,z | F,z F,z | E,z C,z | B, A, G, F, | E,z C,,z|]

